X:1
T:Title
%%score { ( 1 3 ) | ( 2 4 ) }
L:1/8
M:4/4
K:Bb
V:1 treble nm="Grand Piano"
V:3 treble 
V:2 bass 
V:4 bass 
V:1
 z4 z2[Q:1/4=100] [B,D][CE] | [DF][DF][DF][DF] [DF][DB][FA][EG] | [DF][DF][B,D][EG] [DF]2 [CE]D | %3
 EEEE EGFE | D>_D =D[EG] [DF]2 [B,D][CE] | [DF][DF][DF][DF] [DF][Fd][Fc][FB] | cBBG B2 Bc | d6 z2 | %8
[M:3/4] c4 [DB]2 |[M:1/4] FF |[M:4/4] B6 z2 |[M:3/4] A6 |[M:1/4] F2 |[M:4/4] AAGF AAEG | %14
 [DF]6[K:bass][K:treble] z2 |[M:3/4] B6 |[M:1/4] dB | %17
[M:35/32] z2 EEE/ E2- E/(3:2:4[Gc]3/4-[Gc]/8[Ge]3/2-[Ge]/4 |[M:4/4] (5:4:4dF3/2Bd3/2 z4 | %19
[M:3/4] [DB]4- [DB]/4 z/4 z/ z |] %20
V:2
 z4 z2 [B,,F,][B,,F,] | [B,,B,][B,,B,][B,,B,][B,,B,] [B,,B,][B,,F,][B,,G,][B,,A,] | %2
 [B,,B,][B,,B,][B,,F,][B,,B,] [B,,B,]2 [B,,F,][B,,F,B,] | %3
 [F,A,C][F,A,C][F,A,C][F,A,C] [F,A,C][F,E][F,G,D][F,A,C] | %4
 [B,,F,B,]>[B,,=E,B,] [B,,F,B,][B,,B,] [B,,B,]2 [B,,F,][B,,F,] | %5
 [B,,B,][B,,B,][B,,B,][B,,B,] [B,,B,][B,,B,][C,A,][D,B,] | %6
 [E,G,E][E,G,E][E,G,E][E,B,E] [E,G,E]2[K:treble] G^F | F6[K:bass] z2 |[M:3/4] [F,A,E]4 [B,,B,]2 | %9
[M:1/4] z2 |[M:4/4] z2 [B,,F,][B,,F,] [B,,F,]<[B,,F,] z2 |[M:3/4] z2 [F,C][F,C] [F,C]<[F,C] | %12
[M:1/4] [F,A,E]2 |[M:4/4] [F,CE][F,CE][F,B,E][F,A,E] [F,CE][F,CE][F,A,C][F,A,E] | B,2 z2 z4 | %15
[M:3/4] z2 [B,,F,][B,,F,] [B,,F,]<[B,,F,] |[M:1/4] z2 | %17
[M:35/32] z2 [E,B,][E,B,][E,B,]/ [E,B,]2- [E,B,]/(3:2:4[E,E]3/4-[E,E]/8[E,B,]3/2-[E,B,]/4 | %18
[M:4/4] (5:4:4[F,B,F][F,B,D]3/2[F,B,D][F,B,F]3/2 z4 |[M:3/4] [B,,B,]4- [B,,B,]/4 z/4 z/ z |] %20
V:3
 x8 | x8 | x8 | x8 | x8 | x8 | x8 | z2 B,B, .B,2 Fd |[M:3/4] x6 |[M:1/4] x2 |[M:4/4] z2 DD D<D AG | %11
[M:3/4] z2 EE E<E |[M:1/4] x2 |[M:4/4] x8 | z2[K:bass] A,G, F,<F,[K:treble] FF |[M:3/4] z2 DD D<D | %16
[M:1/4] x2 |[M:35/32] G3/2-G/4- G4- G-G/4 z3/2 z/4 |[M:4/4] z4 (5:4:5cF3/2 d/-d3/2c/ |[M:3/4] x6 |] %20
V:4
 x8 | x8 | x8 | x8 | x8 | x8 | x6[K:treble] x2 | z2[K:bass] B,,D, .F,2 [F,B,D][F,B,F] |[M:3/4] x6 | %9
[M:1/4] x2 |[M:4/4] x8 |[M:3/4] x6 |[M:1/4] x2 |[M:4/4] x8 | B,,6 z2 |[M:3/4] x6 |[M:1/4] x2 | %17
[M:35/32] x35/4 |[M:4/4] z4 (5:4:5[F,A,E][F,A,E]3/2 [F,A,F]/-[F,A,F]3/2[F,A,E]/ |[M:3/4] x6 |] %20

